ultrasound/ui/components/snx-input.svg

<svg width="16" height="16" viewBox="0 0 16 16" fill="none" xmlns="http://www.w3.org/2000/svg">
<path d="M16 8C16 12.4183 12.4183 16 8 16C3.58172 16 0 12.4183 0 8C0 3.58172 3.58172 0 8 0C12.4183 0 16 3.58172 16 8Z" fill="#00D1FF"/>
<path d="M5.3906 6.08317C5.32035 6.00348 5.23386 5.96354 5.13094 5.96354H3.02609C3.00739 5.96354 2.99209 5.95767 2.98058 5.94593C2.96887 5.93439 2.96301 5.92132 2.96301 5.90732V4.50068C2.96301 4.48667 2.96887 4.4738 2.98058 4.46206C2.99209 4.45033 3.00739 4.44446 3.02609 4.44446H5.25029C5.81153 4.44446 6.29572 4.67199 6.70268 5.12667L7.24296 5.78068L6.19054 7.05368L5.3906 6.08317ZM9.27775 5.11967C9.68471 4.66953 10.1712 4.44446 10.7371 4.44446H12.9543C12.973 4.44446 12.987 4.44919 12.9965 4.45847C13.0057 4.46793 13.0104 4.48194 13.0104 4.50068V5.90732C13.0104 5.92132 13.0057 5.93439 12.9965 5.94593C12.987 5.95767 12.973 5.96354 12.9543 5.96354H10.8495C10.7466 5.96354 10.6601 6.00348 10.5898 6.08317L9.03924 7.95396L10.5968 9.83875C10.6671 9.9139 10.7511 9.95138 10.8495 9.95138H12.9543C12.973 9.95138 12.987 9.95725 12.9965 9.96898C13.0057 9.98072 13.0104 9.99605 13.0104 10.0146V11.4212C13.0104 11.4352 13.0057 11.4483 12.9965 11.4599C12.987 11.4716 12.973 11.4775 12.9543 11.4775H10.7371C10.1712 11.4775 9.68698 11.2501 9.28474 10.7952L7.9938 9.23396L6.70268 10.7952C6.29572 11.2501 5.80926 11.4775 5.2433 11.4775H3.02609C3.00739 11.4775 2.99323 11.4716 2.98397 11.4599C2.97453 11.4481 2.97 11.433 2.97 11.414V10.0074C2.97 9.9934 2.97453 9.98053 2.98397 9.96879C2.99323 9.95706 3.00739 9.95119 3.02609 9.95119H5.13094C5.22914 9.95119 5.31563 9.91144 5.3906 9.83156L6.91305 7.98898L9.27775 5.11967Z" fill="#0B0B22"/>
</svg>

<svg width="16" height="16" fill="none" viewBox="0 0 16 16" xmlns="http://www.w3.org/2000/svg">
  <path fill="#00D1FF" d="M16 8A8 8 0 1 1 0 8a8 8 0 0 1 16 0"/>
  <path fill="#0B0B22" d="M5.39 6.083a.33.33 0 0 0-.26-.12H3.027a.06.06 0 0 1-.045-.017.05.05 0 0 1-.018-.039V4.501q0-.021.018-.039a.06.06 0 0 1 .045-.018H5.25q.843 0 1.453.683l.54.654-1.052 1.273zm3.888-.963q.61-.676 1.46-.676h2.216q.029 0 .042.014t.014.043v1.406a.06.06 0 0 1-.014.039q-.013.018-.042.018H10.85q-.155 0-.26.12l-1.55 1.87 1.557 1.885q.105.112.253.112h2.104q.029 0 .042.018t.014.046v1.406a.06.06 0 0 1-.014.039q-.013.018-.042.017h-2.217q-.849 0-1.452-.682L7.994 9.234l-1.291 1.561q-.61.682-1.46.682H3.026q-.029 0-.042-.017a.07.07 0 0 1-.014-.046v-1.407a.06.06 0 0 1 .014-.038q.014-.018.042-.018h2.105q.147 0 .26-.12L6.913 7.99z"/>
</svg>
